data/images/route1.svg

<svg xmlns="http://www.w3.org/2000/svg" width="1000" height="6500"><path stroke="#7d8b2f" d="M500 0v500m0 0v500" stroke-width="100"/><path stroke="#7d8b2f" d="M500 500a250 250 0 0 1-250 250" stroke-width="100" fill="none"/><path stroke="#7d8b2f" d="M500 1000v500m0 0v500" stroke-width="100"/><path stroke="#7d8b2f" d="M500 1500a250 250 0 0 1-250 250" stroke-width="100" fill="none"/><path stroke="#7d8b2f" d="M500 2000v500m0 0v500m0 0v500" stroke-width="100"/><path stroke="#7d8b2f" d="M500 3000a250 250 0 0 1-250 250M250 4000c0-125 62.5-187.5 125-250s125-125 125-250m250 500c0-125-62.5-187.5-125-250s-125-125-125-250" stroke-width="100" fill="none"/><path stroke="#7d8b2f" d="M250 4000v500" stroke-width="100"/><path stroke="#7d8b2f" d="M250 4000A250 250 0 0 1 0 4250" stroke-width="100" fill="none"/><path stroke="#7d8b2f" d="M750 4000v500m-500 0v500m500-500v500" stroke-width="100"/><path stroke="#7d8b2f" stroke-opacity=".4" d="M220 4975v525m60-525v525" stroke-width="40" stroke-dasharray="50"/><path stroke="#7d8b2f" d="M750 5000v500m0 0v500" stroke-width="100"/><path stroke="#7d8b2f" stroke-opacity=".4" d="M720 5975v525m60-525v525" stroke-width="40" stroke-dasharray="50"/></svg>

<svg xmlns="http://www.w3.org/2000/svg" width="1000" height="6500"><path stroke="#7d8b2f" d="M500 0v500M500 500v500" stroke-width="100"/><path stroke="#7d8b2f" d="M500 500a250 250 0 0 1-250 250" stroke-width="100" fill="none"/><path stroke="#7d8b2f" d="M500 1000v500M500 1500v500" stroke-width="100"/><path stroke="#7d8b2f" d="M500 1500a250 250 0 0 1-250 250" stroke-width="100" fill="none"/><path stroke="#7d8b2f" d="M500 2000v500M500 2500v500M500 3000v500" stroke-width="100"/><path stroke="#7d8b2f" d="M500 3000a250 250 0 0 1-250 250" stroke-width="100" fill="none"/><g stroke="#7d8b2f" stroke-width="100" fill="none"><path d="M250 4000c0-125 62.5-187.5 125-250s125-125 125-250M750 4000c0-125-62.5-187.5-125-250s-125-125-125-250"/></g><path stroke="#7d8b2f" d="M250 4000v500" stroke-width="100"/><path stroke="#7d8b2f" d="M250 4000A250 250 0 0 1 0 4250" stroke-width="100" fill="none"/><path stroke="#7d8b2f" d="M750 4000v500M250 4500v500M750 4500v500" stroke-width="100"/><path stroke="#7d8b2f" stroke-opacity=".4" d="M220 4975v525M280 4975v525" stroke-width="40" stroke-dasharray="50"/><path stroke="#7d8b2f" d="M750 5000v500M750 5500v500" stroke-width="100"/><path stroke="#7d8b2f" stroke-opacity=".4" d="M720 5975v525M780 5975v525" stroke-width="40" stroke-dasharray="50"/></svg>
